X: 1
T: Tikkuristi   [D]
%T: Stick Dance
C: trad.
O: Finland
M: 3/4
L: 1/8
K: D
|: "D"d2 d>c d>f | a2 a>f d2 | "Em"e2 e>d e>f | "A7"e2 e>c A2 :|\
|: "D"d>e f>g f>e | d2 a2 a2 "^I"| "A7"e>f g>b a>g | "D"f2 d2 d2 :|
